packages/tokens/icons/starFilled/size32Px.svg

<svg viewBox="0 0 32 32" fill="none" xmlns="http://www.w3.org/2000/svg" width="1em" height="1em"><path d="M7.18117 18.8795L3.01674 15.11C1.78554 13.9955 2.37034 11.9529 4.00477 11.6588L10.4969 10.4908C11.1271 10.3774 11.6649 9.96921 11.9435 9.39275L14.1993 4.72558C14.9273 3.21936 17.0727 3.21936 17.8007 4.72558L20.0565 9.39274C20.3351 9.96921 20.8729 10.3774 21.5031 10.4908L27.9952 11.6588C29.6297 11.9529 30.2145 13.9955 28.9833 15.11L24.8188 18.8795C24.3092 19.3408 24.0722 20.0315 24.1912 20.7085L25.3008 27.0215C25.5873 28.6519 23.8824 29.9047 22.4121 29.1442L16.9188 26.3029C16.3425 26.0048 15.6575 26.0048 15.0812 26.3029L9.5879 29.1442C8.11762 29.9047 6.4127 28.6519 6.69924 27.0215L7.80881 20.7085C7.9278 20.0315 7.69078 19.3408 7.18117 18.8795Z" fill="currentColor"/></svg>

<svg xmlns="http://www.w3.org/2000/svg" fill="none" viewBox="0 0 32 32" width="1em" height="1em"><path fill="currentColor" d="m7.181 18.88-4.164-3.77c-1.231-1.114-.647-3.157.988-3.451l6.492-1.168a2 2 0 0 0 1.447-1.098l2.255-4.667c.728-1.507 2.874-1.507 3.602 0l2.256 4.667a2 2 0 0 0 1.446 1.098l6.492 1.168c1.635.294 2.22 2.336.988 3.451l-4.164 3.77a2 2 0 0 0-.628 1.829l1.11 6.313c.286 1.63-1.419 2.883-2.889 2.122l-5.493-2.841a2 2 0 0 0-1.838 0l-5.493 2.841c-1.47.76-3.175-.492-2.889-2.122l1.11-6.313a2 2 0 0 0-.628-1.83Z"/></svg>
